outputs/icons/alert/alert_outline_sharp.svg

<svg xmlns="http://www.w3.org/2000/svg" width="1200" height="1200" fill="none"><g clip-path="url(#a)"><path fill="#000" d="M600 1100c55 0 100-45 100-100H500c0 55 45 100 100 100m300-300V550c0-153.5-81.5-282-225-316V125H525v109c-143 34-225 162-225 316v250L200 900v50h800v-50zm-100 50H400V550c0-124 75.5-225 200-225s200 101 200 225z"/></g><defs><clipPath id="a"><path fill="#fff" d="M0 0h1200v1200H0z"/></clipPath></defs></svg>

<svg width="1200" height="1200" viewBox="0 0 1200 1200" fill="none" xmlns="http://www.w3.org/2000/svg"><g clip-path="url(#clip0_122_377)"><path d="M600 1100C655 1100 700 1055 700 1000H500C500 1055 545 1100 600 1100ZM900 800V550C900 396.5 818.5 268 675 234V125H525V234C382 268 300 396 300 550V800L200 900V950H1000V900L900 800ZM800 850H400V550C400 426 475.5 325 600 325C724.5 325 800 426 800 550V850Z" fill="black"/></g><defs><clipPath id="clip0_122_377"><path width="24" fill="white" d="M0 0H1200V1200H0V0z"/></clipPath></defs></svg>
